X:1
T:Breath Arc Study
C:Original breath-control study
S:Public domain or original as noted in notes.md
M:4/4
L:1/8
Q:1/4=72
K:C
H:C major starter arrangement for Vessel Flutes (C). Refs #1
C2 D2 E2 G2 | A4 G4 | E2 G2 A2 c2 | d4 c4 |
A2 G2 E2 D2 | C4 D4 | E2 G2 A2 G2 | C8 |
C2 E2 G2 A2 | c4 A4 | G2 E2 D2 C2 | E8 |
G2 A2 c2 d2 | c4 A4 | G2 E2 D2 C2 | C8 |]
